frontend/public/svg/weather/snowflake.svg

<svg width="155" height="154" viewBox="0 0 155 154" fill="none" xmlns="http://www.w3.org/2000/svg">
<g clip-path="url(#clip0)">
<path d="M66.5281 74.4573C62.984 70.8724 60.1013 67.9189 57.1754 65.0062C55.1873 63.028 53.4461 60.3738 51.0341 59.3709C48.6345 58.374 45.5325 59.0982 42.7405 59.0037C38.2505 58.852 33.7623 58.6484 29.273 58.4646C27.7516 58.4029 26.2829 58.1929 25.8641 56.3853C25.5077 54.8449 26.5507 53.402 28.6635 52.7864C30.068 52.4194 31.5075 52.2021 32.9579 52.1384C36.1969 51.9106 39.4426 51.782 43.1423 51.5897C42.6574 50.8785 42.1344 50.1939 41.5761 49.5387C39.3032 47.2054 36.9266 44.9685 34.7285 42.567C34.1418 41.8949 33.4259 41.3476 32.6233 40.9582C31.8206 40.5688 30.9479 40.3453 30.0569 40.3006C24.4597 39.8674 18.8617 39.4127 13.2796 38.8194C10.9465 38.5046 8.63288 38.0585 6.34989 37.4836C4.79306 37.137 3.683 36.2256 3.66397 34.4935C3.64822 33.0436 4.90773 31.982 6.93188 31.7727C7.93479 31.7184 8.9405 31.7448 9.93925 31.8515C14.6999 32.1338 19.4603 32.4233 24.22 32.72L24.5344 32.0335C22.7905 30.1879 21.0558 28.336 19.3007 26.4989C18.0603 25.198 16.7586 23.9542 15.5595 22.6186C13.3739 20.1901 13.0563 17.9374 14.5948 16.3635C16.3013 14.617 18.4579 14.9096 21.0675 17.382C23.1022 19.3129 25.0337 21.3589 27.0309 23.3332C27.6446 23.939 28.3261 24.4756 29.4143 25.4266C29.2456 22.4343 29.0567 19.9985 28.9904 17.5589C28.9225 16.1047 28.9937 14.6468 29.2035 13.2062C29.2933 12.3617 29.6583 11.5705 30.2421 10.9538C30.826 10.3371 31.5962 9.92953 32.4345 9.79367C33.9999 9.64074 35.5714 10.6245 36.0879 12.644C36.6326 15.0443 37.0171 17.4779 37.2391 19.9291C37.7885 24.6081 38.2274 29.2998 38.7761 33.9789C38.8253 34.7548 39.1048 35.4983 39.5789 36.1145C42.5705 39.2649 45.6545 42.331 49.1442 45.866C49.5026 42.2798 49.7633 39.3311 50.1053 36.3927C50.2285 34.9415 50.4874 33.5049 50.879 32.1021C51.1298 31.2895 51.6422 30.5825 52.3362 30.0908C53.0301 29.5991 53.8668 29.3506 54.7167 29.3832C55.57 29.4357 56.3781 29.7844 57.0014 30.3696C57.6246 30.9549 58.0238 31.7396 58.1297 32.588C58.2845 34.2609 58.2645 35.9455 58.0705 37.6143C57.7489 41.7538 57.4141 45.8949 56.9481 50.0194C56.7727 51.0615 56.8716 52.1313 57.2353 53.1235C57.599 54.1158 58.2149 54.9958 59.0223 55.6777C62.8199 59.178 66.4211 62.8909 70.1143 66.5071C70.6552 67.0361 71.2505 67.5106 72.1746 68.3199C72.7062 54.4791 73.2201 41.0885 73.7452 27.4065C68.081 22.1131 62.3526 16.7614 56.6261 11.4064C55.8884 10.7159 55.1197 10.0522 54.4411 9.30595C52.5436 7.22404 52.2017 4.9676 53.5223 3.61489C54.8034 2.30221 56.8274 2.3952 58.9973 4.11612C62.6026 6.97706 66.1297 9.93728 69.6608 12.8901C71.0116 14.0204 72.2816 15.2462 74.1896 16.9724C74.2243 14.3122 74.1561 12.3506 74.2992 10.4045C74.479 7.94851 74.7415 5.48955 75.1432 3.0611C75.3972 1.52002 76.2833 0.329348 78.0698 0.356914C79.5794 0.380543 80.4983 1.59396 80.6774 3.69949C80.7431 4.48119 80.6919 5.27457 80.73 6.05693C80.8875 9.3045 81.0581 12.5549 81.255 16.3C82.0433 15.7607 82.7981 15.1743 83.5168 14.5451C86.8313 11.1886 90.1044 7.79138 93.4104 4.42634C94.1553 3.58998 94.9863 2.83442 95.8887 2.17146C96.6481 1.67879 97.5486 1.44959 98.4511 1.51896C99.3542 1.58834 100.209 1.95243 100.884 2.55539C101.546 3.17703 101.974 4.00805 102.094 4.90834C102.215 5.80862 102.022 6.72319 101.546 7.49714C101.109 8.27963 100.559 8.99294 99.9141 9.61423C94.6023 14.7829 89.3306 19.9971 83.8889 25.0266C82.1115 26.6675 81.217 28.2694 81.1822 30.7792C81.0247 42.233 80.6328 53.6852 80.3342 65.1357C80.3027 66.3561 80.3302 67.5789 80.3302 69.1922C80.9039 68.8883 81.4519 68.5365 81.9678 68.142C86.0108 64.2425 90.0033 60.2909 94.0786 56.4263C94.6693 55.9153 95.1366 55.2778 95.4464 54.5612C95.7568 53.8446 95.9012 53.0667 95.8697 52.2864C95.7923 47.3488 95.8133 42.4091 95.829 37.4695C95.8389 34.4424 96.5379 33.2131 98.2844 32.9591C99.9679 32.7143 101.165 33.8263 101.822 36.6997C102.566 39.9591 103.084 43.2697 103.749 46.8153C104.471 46.2613 105.111 45.853 105.652 45.3397C108.506 42.6356 111.303 39.8709 114.189 37.2016C115.175 36.2994 115.764 35.0443 115.83 33.7096C116.617 26.4584 117.556 19.2239 118.473 11.9851C118.573 11.0918 118.792 10.2155 119.124 9.38031C119.594 8.25994 120.548 7.4323 121.764 7.79197C122.22 7.92416 122.646 8.14725 123.015 8.44706C123.383 8.74688 123.688 9.11738 123.91 9.5373C124.311 10.8152 124.47 12.1572 124.376 13.4933C124.25 18.0837 124.015 22.6707 123.801 27.7488C124.89 26.7472 125.701 26.0358 126.473 25.285C129.697 22.1549 132.874 18.9772 136.138 15.8905C138.138 13.9989 139.96 13.7243 141.148 14.9149C142.348 16.1187 142.199 18.0227 140.447 20.0285C138.454 22.3092 136.27 24.4259 134.179 26.6174C133.427 27.4051 132.704 28.2207 131.433 29.6075C134.865 29.3043 137.529 29.1079 140.182 28.8198C142.338 28.5868 144.439 28.4123 146.273 29.9357C148.659 31.9159 148.624 34.2399 146.123 36.0652C144.01 37.6076 141.515 37.6402 139.05 37.8463C133.685 38.2972 128.322 38.7815 122.969 39.3295C122.083 39.3847 121.234 39.7045 120.532 40.248C116.76 43.6586 113.211 47.3078 109.906 51.1725C112.745 50.7708 115.579 50.3141 118.427 49.9906C119.634 49.8185 120.862 49.8462 122.06 50.0726C122.892 50.2549 123.639 50.71 124.183 51.3654C124.728 52.0207 125.037 52.8394 125.064 53.6908C125.15 54.5358 124.956 55.3855 124.511 56.1091C124.067 56.8327 123.396 57.39 122.602 57.6942C121.777 58.0365 120.903 58.248 120.012 58.3211C113.98 58.8579 107.941 59.3201 101.909 59.8741C101.028 59.8935 100.175 60.1876 99.4677 60.715C95.2357 64.8584 91.1007 69.101 86.5379 73.7176C88.0882 73.7905 89.0425 73.8732 89.9974 73.8751C101.23 73.9014 112.463 73.8706 123.694 73.9729C124.574 74.0222 125.454 73.8797 126.273 73.5568C127.092 73.2333 127.832 72.7364 128.441 72.0998C132.452 68.1722 136.615 64.4001 140.736 60.5861C142.18 59.2485 143.812 58.3007 145.893 58.7293C149.612 59.4953 150.878 63.5921 148.197 66.5793C146.63 68.3252 144.739 69.7789 143.019 71.3903C142.231 72.128 141.502 72.9287 140.307 74.1469C143.102 74.1469 145.291 74.1246 147.48 74.1547C148.933 74.1744 150.392 74.2066 151.838 74.3477C152.51 74.437 153.129 74.7553 153.593 75.2495C154.056 75.7431 154.334 76.3817 154.382 77.0577C154.428 77.7331 154.24 78.4045 153.85 78.9572C153.459 79.5105 152.889 79.9108 152.237 80.0926C150.942 80.4379 149.613 80.6348 148.274 80.6787C145.144 80.7615 142.01 80.705 138.261 80.705C138.747 81.4677 139.277 82.2021 139.848 82.9044C142.329 85.5048 144.897 88.0238 147.32 90.6767C148.339 91.7157 149.141 92.9477 149.678 94.3004C149.984 95.1904 149.773 96.7551 149.153 97.336C148.7 97.7015 148.175 97.9654 147.611 98.1111C147.048 98.2561 146.46 98.2804 145.887 98.1793C144.507 97.7258 143.236 96.9901 142.154 96.0187C136.435 91.4801 130.938 86.698 126.301 80.8323H85.2226C85.6243 81.5011 86.0765 82.1378 86.576 82.7364C89.0274 85.2101 91.6442 87.5309 93.9578 90.1248C94.7237 91.0758 95.7338 91.8004 96.8805 92.2211C98.0264 92.6418 99.2663 92.7422 100.465 92.5119C103.927 92.1483 107.408 92.0025 110.888 92.0754C112.342 92.0964 113.782 92.3688 115.143 92.8814C115.839 93.1328 116.443 93.5889 116.874 94.1901C117.306 94.7913 117.545 95.5094 117.56 96.2491C117.631 96.9881 117.455 97.7304 117.062 98.3605C116.667 98.9899 116.077 99.4717 115.381 99.7309C114.035 100.255 112.617 100.576 111.176 100.681C109.426 100.839 107.65 100.718 105.442 100.718C105.71 101.257 106.023 101.772 106.38 102.257C110.789 106.744 115.248 111.183 119.615 115.711C120.111 116.309 120.767 116.754 121.506 116.992C122.245 117.231 123.037 117.253 123.788 117.058C130.224 115.769 136.762 116.088 143.272 116.073C144.057 116.051 144.842 116.149 145.597 116.366C146.922 116.79 147.763 117.899 147.48 119.183C147.278 120.111 146.425 121.355 145.606 121.597C143.656 122.111 141.654 122.393 139.639 122.438C137.061 122.57 134.471 122.43 131.889 122.508C130.485 122.551 129.088 122.803 127.112 123.026C129.317 125.323 131.123 127.146 132.854 129.034C134.522 130.854 136.15 132.714 137.718 134.62C138.332 135.419 138.856 136.283 139.279 137.197C139.621 137.795 139.722 138.499 139.559 139.168C139.398 139.836 138.987 140.417 138.41 140.792C137.881 141.229 137.209 141.454 136.524 141.422C135.839 141.389 135.191 141.103 134.705 140.618C133.852 139.891 133.076 139.077 132.292 138.276C129.006 134.913 125.728 131.541 121.886 127.593C121.567 132.122 121.361 135.833 121.015 139.531C120.883 140.956 120.709 142.527 120.002 143.696C119.477 144.57 118.112 145.205 117.023 145.402C116.396 145.498 115.756 145.354 115.231 144.999C114.706 144.643 114.334 144.104 114.189 143.486C113.738 142.111 113.501 140.673 113.484 139.225C113.611 133.951 113.82 128.675 114.175 123.408C114.285 122.588 114.192 121.753 113.903 120.977C113.614 120.201 113.139 119.508 112.519 118.959C107.967 114.641 103.527 110.207 98.5128 105.296C98.3467 107.092 98.2502 108.261 98.1288 109.431C97.886 111.773 97.7475 114.134 97.3465 116.449C96.9481 118.75 95.8421 119.73 94.1553 119.715C92.3603 119.7 91.2287 118.559 91.0942 116.022C90.85 111.428 90.6715 106.817 90.7621 102.22C90.8277 99.0943 90.1057 96.6409 87.5513 94.5911C85.0572 92.5913 82.8959 90.174 80.1038 87.4699C80.0086 89.0024 79.9108 89.8406 79.9108 90.6794C79.9108 102.362 79.9594 114.046 79.9043 125.728C79.8406 126.563 79.9732 127.402 80.2909 128.177C80.6085 128.952 81.1028 129.642 81.7342 130.192C85.8034 133.717 89.8353 137.292 93.9309 140.791C95.722 142.321 97.7035 143.631 99.4704 145.188C101.394 146.882 101.693 148.69 100.548 150.223C99.4815 151.652 97.4469 151.929 95.3886 150.507C91.2386 147.633 87.2231 144.565 83.1525 141.576C82.3649 140.999 81.5871 140.417 80.3814 139.523C80.3814 141.11 80.367 142.18 80.3814 143.249C80.4103 145.044 80.5737 146.844 80.4733 148.63C80.281 152.043 78.9401 153.709 76.6666 153.619C74.5203 153.533 73.3685 151.922 73.2064 148.677C73.1342 147.22 73.1827 145.756 73.1263 144.298C73.0928 143.423 72.9635 142.552 72.8355 141.262C71.9377 142.042 71.2603 142.557 70.6696 143.158C68.0685 145.797 65.5377 148.509 62.8815 151.091C61.9888 151.936 60.9489 152.611 59.8133 153.081C59.1237 153.32 58.3786 153.35 57.6721 153.167C56.9656 152.984 56.3289 152.596 55.8419 152.053C55.3549 151.509 55.0394 150.834 54.9349 150.111C54.8305 149.389 54.9416 148.652 55.2548 147.993C55.9012 146.953 56.6603 145.988 57.518 145.114C62.2567 139.863 66.9941 134.607 71.7939 129.411C72.9405 128.17 72.8395 126.761 72.8152 125.312C72.6491 115.429 72.4791 105.547 72.3065 95.6649C72.2698 93.4288 72.3013 91.1913 72.3013 88.4327C71.2794 89.2243 70.5633 89.6798 69.9647 90.26C67.6229 92.5243 65.3657 94.878 62.9799 97.0944C62.3955 97.6123 61.9265 98.2476 61.6031 98.9584C61.2796 99.6692 61.1089 100.44 61.1022 101.221C60.9053 105.593 60.6479 109.967 60.2712 114.327C60.1593 115.767 59.7836 117.175 59.1627 118.48C58.8473 119.153 58.3132 119.698 57.6475 120.028C56.9817 120.357 56.2237 120.451 55.4977 120.294C54.8168 120.228 54.1754 119.944 53.669 119.484C53.1626 119.025 52.8183 118.414 52.6874 117.742C52.4306 116.322 52.3422 114.878 52.4246 113.438C52.5185 111.449 52.8186 109.468 53.0877 106.904C52.0225 107.757 51.406 108.179 50.8777 108.691C48.7774 110.721 46.851 112.957 44.5893 114.785C43.0465 115.988 41.7651 117.494 40.823 119.209C39.8809 120.924 39.2981 122.814 39.1097 124.761C38.5282 129.433 37.6079 134.065 36.7776 138.703C36.5895 139.806 36.2635 140.88 35.8076 141.901C35.6042 142.44 35.1981 142.879 34.676 143.123C34.1538 143.366 33.557 143.396 33.013 143.206C32.5641 143.041 32.1536 142.787 31.8067 142.458C31.4598 142.129 31.1839 141.733 30.9959 141.294C30.7037 139.871 30.6218 138.414 30.753 136.968C30.8501 134.073 31.0551 131.181 31.2494 127.681C30.0109 128.633 29.2148 129.184 28.4869 129.817C26.1195 131.887 23.8031 134.019 21.4114 136.059C20.6556 136.725 19.7934 137.258 18.8604 137.638C18.2384 137.922 17.5431 138.005 16.8721 137.873C16.2011 137.742 15.588 137.403 15.1191 136.906C14.5738 136.404 14.209 135.737 14.0811 135.008C13.9532 134.278 14.0693 133.526 14.4115 132.869C14.9948 131.79 15.7514 130.814 16.651 129.981C19.0795 127.645 21.6038 125.411 24.073 123.118C24.6151 122.614 25.0852 122.033 26.0369 121C22.9718 121 20.5333 121.066 18.1002 120.973C16.8758 120.914 15.6622 120.716 14.4826 120.382C13.7647 120.191 13.1342 119.759 12.6976 119.158C12.261 118.557 12.0448 117.824 12.0855 117.082C12.0034 116.286 12.2108 115.486 12.6694 114.831C13.1279 114.175 13.8072 113.706 14.583 113.511C15.6509 113.203 16.7565 113.046 17.8679 113.045C22.5856 113.095 27.304 113.183 32.0179 113.373C32.8522 113.441 33.6911 113.322 34.4737 113.025C35.2563 112.728 35.9629 112.26 36.5414 111.655C40.4197 107.8 44.3852 104.034 48.8654 99.7027C45.8102 99.7027 43.5168 99.7224 41.2249 99.6961C39.8815 99.7336 38.5372 99.6692 37.2035 99.5032C35.3061 99.1875 34.4883 98.2108 34.5074 96.6356C34.482 96.2957 34.5246 95.9544 34.6323 95.6308C34.7402 95.3079 34.9109 95.0092 35.1352 94.7526C35.3595 94.4966 35.6326 94.2873 35.9386 94.137C36.2446 93.9867 36.5772 93.8987 36.9174 93.8784C40.138 93.4655 43.3686 93.0908 46.6064 92.8715C49.1812 92.6963 51.7782 92.863 54.351 92.691C55.4524 92.6779 56.5226 92.3228 57.4141 91.6764C61.0509 88.3704 64.5408 84.9023 68.4965 81.0929C67.1654 80.9885 66.3358 80.8573 65.5088 80.8691C53.6034 81.045 41.6988 81.2839 29.7928 81.385C28.9093 81.3357 28.0284 81.5208 27.2396 81.9225C26.4507 82.3235 25.7823 82.9267 25.3016 83.6697C22.8732 87.036 20.3759 90.3702 17.6829 93.5272C16.2141 95.2042 14.515 96.6645 12.6364 97.865C11.3237 98.7221 9.52989 98.9309 8.24806 97.6313C7.63793 97.0308 7.24393 96.2445 7.12802 95.3958C7.01211 94.5472 7.18079 93.6847 7.60748 92.9424C8.30431 91.6724 9.1378 90.4825 10.0931 89.3936C12.238 86.8208 14.4603 84.3136 17.1086 81.2511C13.8847 81.0771 11.267 80.9787 8.65283 80.7792C6.75681 80.6525 4.86884 80.428 2.99609 80.1058C2.42337 80.0533 1.89328 79.7796 1.51838 79.3438C1.14346 78.9073 0.953089 78.3422 0.987022 77.7685C1.031 76.4172 1.96734 75.7457 3.15793 75.5849C4.37954 75.4707 5.60734 75.4359 6.83349 75.4799C9.79302 75.5574 12.7536 75.3696 15.6796 74.9194C14.0959 73.5824 12.5292 72.2205 10.9224 70.9157C9.09192 69.4298 7.17154 68.0508 5.38173 66.5183C3.52889 64.9318 3.10014 63.2313 4.0072 61.8392C4.95955 60.3782 7.0106 60.0335 9.12008 61.3521C12.4484 63.432 15.6516 65.7135 18.8866 67.9405C22.2012 70.222 25.4728 72.5658 28.8083 74.815C29.3863 75.1445 30.0471 75.3014 30.7116 75.2653C42.3912 75.0251 54.0624 74.7494 66.5281 74.4573Z" fill="black"/>
</g>
<defs>
<clipPath id="clip0">
<rect width="154.239" height="153.583" fill="white" transform="translate(0.390625 0.124023)"/>
</clipPath>
</defs>
</svg>

<svg xmlns="http://www.w3.org/2000/svg" width="155" height="154" fill="none" viewBox="0 0 155 154"><g clip-path="url(#a)"><path fill="#000" d="M66.528 74.457c-3.544-3.585-6.427-6.538-9.353-9.45-1.988-1.979-3.729-4.633-6.14-5.636-2.4-.997-5.502-.273-8.294-.367-4.49-.152-8.979-.356-13.468-.54-1.521-.061-2.99-.271-3.409-2.079-.356-1.54.687-2.983 2.8-3.599a20.6 20.6 0 0 1 4.294-.648c3.239-.227 6.485-.356 10.184-.548a24 24 0 0 0-1.566-2.051c-2.273-2.334-4.65-4.57-6.848-6.972a6.65 6.65 0 0 0-4.671-2.266c-5.597-.434-11.195-.888-16.777-1.482a63 63 0 0 1-6.93-1.335c-1.557-.347-2.667-1.258-2.686-2.99-.016-1.45 1.244-2.512 3.268-2.721a19 19 0 0 1 3.007.079q7.14.423 14.281.868l.314-.687c-1.743-1.845-3.478-3.697-5.233-5.534-1.24-1.301-2.542-2.545-3.741-3.88-2.186-2.429-2.504-4.682-.965-6.256 1.706-1.746 3.863-1.453 6.472 1.019 2.035 1.93 3.967 3.977 5.964 5.951.614.606 1.295 1.143 2.383 2.094-.168-2.993-.357-5.428-.424-7.868a23 23 0 0 1 .213-4.353 3.87 3.87 0 0 1 3.232-3.412c1.565-.153 3.136.83 3.653 2.85.545 2.4.93 4.834 1.151 7.285.55 4.68.988 9.37 1.537 14.05.05.776.329 1.52.803 2.136 2.992 3.15 6.075 6.216 9.565 9.751.359-3.586.62-6.535.961-9.473.123-1.452.382-2.888.774-4.29a3.86 3.86 0 0 1 3.838-2.72 3.666 3.666 0 0 1 3.413 3.205 24.2 24.2 0 0 1-.06 5.026c-.321 4.14-.656 8.28-1.122 12.405a6.09 6.09 0 0 0 2.074 5.659c3.798 3.5 7.4 7.213 11.092 10.83.541.528 1.136 1.003 2.06 1.812l1.571-40.913-17.119-16c-.738-.691-1.506-1.355-2.185-2.101-1.897-2.082-2.24-4.338-.919-5.691 1.281-1.313 3.305-1.22 5.475.501 3.606 2.861 7.133 5.821 10.664 8.774 1.35 1.13 2.62 2.356 4.529 4.082.034-2.66-.034-4.621.11-6.568.179-2.455.442-4.914.843-7.343C75.397 1.52 76.283.33 78.07.357c1.51.024 2.428 1.237 2.607 3.342.066.782.015 1.576.053 2.358.157 3.248.328 6.498.525 10.243a24 24 0 0 0 2.262-1.755c3.314-3.356 6.587-6.754 9.893-10.119a16 16 0 0 1 2.479-2.255 4.13 4.13 0 0 1 4.995.384 3.94 3.94 0 0 1 .662 4.942 9.1 9.1 0 0 1-1.632 2.117c-5.312 5.169-10.583 10.383-16.025 15.413-1.777 1.64-2.672 3.242-2.707 5.752-.157 11.454-.55 22.906-.848 34.357-.031 1.22-.004 2.443-.004 4.056a12 12 0 0 0 1.638-1.05c4.043-3.9 8.035-7.851 12.11-11.716a5.19 5.19 0 0 0 1.792-4.14c-.078-4.937-.057-9.877-.041-14.817.01-3.027.709-4.256 2.455-4.51 1.684-.245 2.881.867 3.538 3.74.744 3.26 1.262 6.57 1.927 10.116.722-.554 1.362-.962 1.903-1.475 2.854-2.704 5.651-5.47 8.537-8.138a5.07 5.07 0 0 0 1.641-3.492c.787-7.252 1.726-14.486 2.643-21.725.1-.893.319-1.77.651-2.605.47-1.12 1.424-1.948 2.64-1.588a3.56 3.56 0 0 1 2.146 1.745c.401 1.278.56 2.62.466 3.956-.126 4.59-.361 9.178-.575 14.256 1.089-1.002 1.9-1.713 2.672-2.464 3.224-3.13 6.401-6.308 9.665-9.394 2-1.892 3.822-2.167 5.01-.976 1.2 1.204 1.051 3.108-.701 5.114-1.993 2.28-4.177 4.397-6.268 6.588-.752.788-1.475 1.604-2.746 2.99 3.432-.303 6.096-.5 8.749-.787 2.156-.233 4.257-.408 6.091 1.116 2.386 1.98 2.351 4.304-.15 6.13-2.113 1.542-4.608 1.574-7.073 1.78a890 890 0 0 0-16.081 1.484 4.43 4.43 0 0 0-2.437.918 119 119 0 0 0-10.626 10.925c2.839-.402 5.673-.859 8.521-1.182a11.1 11.1 0 0 1 3.633.082 3.82 3.82 0 0 1 3.004 3.618 3.87 3.87 0 0 1-2.462 4.003 8.6 8.6 0 0 1-2.59.627c-6.032.537-12.071 1-18.103 1.553a4.24 4.24 0 0 0-2.441.841c-4.232 4.143-8.367 8.386-12.93 13.003 1.55.072 2.505.155 3.46.157 11.232.026 22.465-.004 33.696.098a6.1 6.1 0 0 0 4.747-1.873c4.011-3.928 8.174-7.7 12.295-11.514 1.444-1.337 3.076-2.285 5.157-1.857 3.719.766 4.985 4.863 2.304 7.85-1.567 1.746-3.458 3.2-5.178 4.811-.788.738-1.517 1.539-2.712 2.757 2.795 0 4.984-.022 7.173.008 1.453.02 2.912.052 4.358.193a2.936 2.936 0 0 1 2.544 2.71 2.94 2.94 0 0 1-2.145 3.035 17.6 17.6 0 0 1-3.963.586c-3.13.082-6.264.026-10.013.026a24 24 0 0 0 1.587 2.2c2.481 2.6 5.049 5.119 7.472 7.772a10.9 10.9 0 0 1 2.358 3.623c.306.89.095 2.455-.525 3.036a4.08 4.08 0 0 1-3.266.843 10.5 10.5 0 0 1-3.733-2.16c-5.719-4.539-11.216-9.321-15.853-15.187H85.223q.602 1.006 1.353 1.904c2.451 2.474 5.068 4.795 7.382 7.389a6.73 6.73 0 0 0 6.507 2.387 83 83 0 0 1 10.423-.437c1.454.021 2.894.294 4.255.806a3.66 3.66 0 0 1 2.417 3.368 3.376 3.376 0 0 1-2.179 3.482 14.5 14.5 0 0 1-4.205.95c-1.75.158-3.526.037-5.734.037q.402.81.938 1.539c4.409 4.487 8.868 8.926 13.235 13.454a4.09 4.09 0 0 0 4.173 1.347c6.436-1.289 12.974-.97 19.484-.985a7.6 7.6 0 0 1 2.325.293c1.325.424 2.166 1.533 1.883 2.817-.202.928-1.055 2.172-1.874 2.414-1.95.514-3.952.796-5.967.841-2.578.132-5.168-.008-7.75.07-1.404.043-2.801.295-4.777.518 2.205 2.297 4.011 4.12 5.742 6.008 1.668 1.82 3.296 3.68 4.864 5.586a13.6 13.6 0 0 1 1.561 2.577c.342.598.443 1.302.28 1.971a2.7 2.7 0 0 1-1.149 1.624 2.76 2.76 0 0 1-3.705-.174c-.853-.727-1.629-1.541-2.413-2.342-3.286-3.363-6.564-6.735-10.406-10.683-.319 4.529-.525 8.24-.871 11.938-.132 1.425-.306 2.996-1.013 4.165-.525.874-1.89 1.509-2.979 1.706a2.52 2.52 0 0 1-2.834-1.916 14.2 14.2 0 0 1-.705-4.261c.127-5.274.336-10.55.691-15.817a5.04 5.04 0 0 0-1.656-4.449c-4.552-4.318-8.992-8.752-14.006-13.663-.166 1.796-.263 2.965-.384 4.135-.243 2.342-.382 4.703-.782 7.018-.399 2.301-1.505 3.281-3.192 3.266-1.795-.015-2.926-1.156-3.06-3.693-.245-4.594-.424-9.205-.333-13.802.066-3.126-.656-5.58-3.21-7.629-2.495-2-4.656-4.417-7.448-7.121-.095 1.532-.193 2.37-.193 3.21 0 11.682.048 23.366-.007 35.048a5.38 5.38 0 0 0 1.83 4.464c4.07 3.525 8.101 7.1 12.197 10.599 1.791 1.53 3.773 2.84 5.54 4.397 1.923 1.694 2.222 3.502 1.077 5.035-1.067 1.429-3.101 1.706-5.16.284-4.15-2.874-8.165-5.942-12.236-8.931-.787-.577-1.565-1.159-2.77-2.053 0 1.587-.015 2.657 0 3.726.028 1.795.192 3.595.091 5.381-.192 3.413-1.533 5.079-3.806 4.989-2.147-.086-3.299-1.697-3.46-4.942-.073-1.457-.024-2.921-.08-4.379-.034-.875-.163-1.746-.291-3.036-.898.78-1.576 1.295-2.166 1.896-2.602 2.639-5.132 5.351-7.788 7.933a10.1 10.1 0 0 1-3.069 1.99 3.704 3.704 0 0 1-4.558-5.088 16.7 16.7 0 0 1 2.263-2.879c4.739-5.251 9.476-10.507 14.276-15.703 1.147-1.241 1.046-2.65 1.021-4.099q-.25-14.824-.508-29.647c-.037-2.236-.006-4.474-.006-7.232-1.022.791-1.738 1.247-2.336 1.827-2.342 2.264-4.6 4.618-6.985 6.834a5.58 5.58 0 0 0-1.878 4.127c-.197 4.372-.454 8.746-.83 13.106a11.8 11.8 0 0 1-1.11 4.153 3.28 3.28 0 0 1-3.664 1.814 3.175 3.175 0 0 1-2.81-2.552 18.3 18.3 0 0 1-.263-4.304c.094-1.989.394-3.97.663-6.534-1.065.853-1.682 1.275-2.21 1.787-2.1 2.03-4.027 4.266-6.289 6.094a14.4 14.4 0 0 0-5.48 9.976c-.58 4.672-1.501 9.304-2.331 13.942a13.3 13.3 0 0 1-.97 3.198 2.21 2.21 0 0 1-2.795 1.305 3.5 3.5 0 0 1-2.017-1.912 14.8 14.8 0 0 1-.243-4.326c.097-2.895.302-5.787.496-9.287-1.238.952-2.034 1.503-2.762 2.136-2.367 2.07-4.684 4.202-7.076 6.242a9 9 0 0 1-2.55 1.579 3.27 3.27 0 0 1-3.742-.732 3.37 3.37 0 0 1-.707-4.037 11.2 11.2 0 0 1 2.239-2.888c2.428-2.336 4.953-4.57 7.422-6.863.542-.504 1.012-1.085 1.964-2.118-3.065 0-5.504.066-7.937-.027a16 16 0 0 1-3.617-.591 3.234 3.234 0 0 1-2.398-3.3 3.33 3.33 0 0 1 2.498-3.571 12 12 0 0 1 3.285-.466c4.718.05 9.436.138 14.15.328a5.63 5.63 0 0 0 4.523-1.718c3.879-3.855 7.844-7.621 12.324-11.952-3.055 0-5.348.02-7.64-.007a26.6 26.6 0 0 1-4.022-.193c-1.897-.316-2.715-1.292-2.696-2.867a2.57 2.57 0 0 1 1.432-2.499c.306-.15.638-.238.978-.259 3.221-.412 6.452-.787 9.69-1.007 2.574-.175 5.171-.008 7.744-.18a5.33 5.33 0 0 0 3.063-1.015c3.637-3.306 7.127-6.774 11.082-10.583-1.33-.105-2.16-.236-2.987-.224-11.906.176-23.81.415-35.716.516a5.01 5.01 0 0 0-4.491 2.285c-2.429 3.366-4.926 6.7-7.62 9.857a23.6 23.6 0 0 1-5.046 4.338c-1.312.857-3.106 1.066-4.388-.234a3.87 3.87 0 0 1-.64-4.689c.696-1.27 1.53-2.46 2.485-3.548 2.145-2.573 4.367-5.08 7.016-8.143-3.224-.174-5.842-.272-8.456-.472a55 55 0 0 1-5.657-.673 2.217 2.217 0 0 1-2.009-2.337c.044-1.352.98-2.023 2.17-2.184a28.5 28.5 0 0 1 3.676-.105c2.96.077 5.92-.11 8.847-.56-1.584-1.338-3.15-2.7-4.758-4.004-1.83-1.486-3.75-2.865-5.54-4.398-1.853-1.586-2.282-3.287-1.375-4.679.953-1.46 3.004-1.806 5.113-.487 3.328 2.08 6.532 4.361 9.767 6.589 3.314 2.281 6.586 4.625 9.921 6.874.578.33 1.24.486 1.904.45 11.68-.24 23.35-.516 35.816-.808"/></g><defs><clipPath id="a"><path fill="#fff" d="M.39.124h154.24v153.583H.39z"/></clipPath></defs></svg>
